X:1
T:Saved for Service
T:Saved for Service
T:Roy Gourley
T:Ora Allen Newlin, 1911
T:Public Domain Courtesy of the Cyber Hymnal™
C:Roy Gourley
Z:Public Domain
Z:Courtesy of the Cyber Hymnal™
%%score ( 1 2 ) ( 3 4 )
L:1/8
Q:1/4=100
M:4/4
K:Bb
V:1 treble 
V:2 treble 
V:3 bass 
V:4 bass 
V:1
 [Fd]3 [Fd] [DF][DB][Ge][Fd] | [Fd]2 [Ec]2 [Ec]4 | [Ec]3 [Ec] [EF][EA][Dd][Dc] | %3
w: 1.~Once I doubt- ed much the|Ho- ly Word,|Ques- tioned ser- mons which I|
w: 2.~Once I stum- bled at the|ma- ny creeds,|Boast- ed oft- en of my|
w: 3.~Once I looked up- on the|church with scorn,|Dis- re- gard- ed those who|
w: 4.~Once I drank the dregs of|mor- al dross,|Sought for gains that in the|
 [Dc]2 [DB]2 [DB]4 | [EB]3 [EB] [EB][EB][^CA][CG] | (GF) (Bc) !fermata![=E^c]4 | %6
w: sel- dom heard,|Till my soul the Ho- ly|Spir- * it * stirred:|
w: mor- al deeds,|Till I came to see my|soul’s * deep * needs:|
w: came to warn,|Till I heard “A- gain ye|must * be * born”:|
w: end are loss,|Till I met the Sav- ior|at * the * cross:|
 !>![Fd]4 !>![Ec]4 | !>![DB]6 z2 ||"^Refrain" [Fd]3 [Fd] [DF][DB][Ge][Fd] | [Fd]2 [Ec]2 [Ec]4 | %10
w: Now I’m|saved.|||
w: Now I’m|saved.|Saved for ser- vice is my|song to- day,|
w: Now I’m|saved.|||
w: Now I’m|saved.|||
 [Ec]3 [Ec] [EF][EA][Fd][Ec] | [Dc]2 [DB]2 [DB]4 | [Fd]3 [Fd] [Fd][Fd]GG | %13
w: |||
w: Blest for bless- ing is the|Gos- pel way,|Bring to Je- sus some- one|
w: |||
w: |||
 (c=B) (cd) !fermata![Fe]4 | !>![Fd]4 !>![Ec]4 | B6 z2 |] %16
w: |||
w: now * a- * stray,|Saved to|serve.|
w: |||
w: |||
V:2
 x8 | x8 | x8 | x8 | x8 | D2 D2 x4 | x8 | x8 || x8 | x8 | x8 | x8 | x6 GG | G2 G2 x4 | x8 | %15
 (!>!D2 EE D2) x2 |] %16
V:3
 [B,,B,]3 [B,,B,] [B,,B,][B,,F,][B,,F,][B,,B,] | [F,B,]2 [F,A,]2 [F,A,]4 | %2
w: ~ ~ ~ ~ ~ ~|~ ~ ~|
 [F,A,]3 [F,A,] [F,A,][F,C][^F,A,][F,A,] | G,2 G,2 G,4 | [E,G,]3 [E,G,] [E,G,][E,G,][=E,B,][E,B,] | %5
w: ~ ~ ~ ~ ~ ~|~ ~ ~|~ ~ ~ ~ ~ ~|
 [F,B,]2 [F,B,]2 !fermata![_G,B,]4 | !>![F,A,]4 !>![F,A,]4 | !>![B,,B,]6 z2 || %8
w: ~ ~ ~|~ ~|~|
 [B,,B,]3 [B,,B,] [B,,B,][B,,F,][B,,F,][B,,B,] | [F,B,]2 [F,A,]2 [F,A,]4 | %10
w: ~ ~ ~ ~ ~ ~|~ ~ ~|
 [F,A,]3 [F,A,] [F,A,][F,A,][F,A,][F,A,] | [B,,B,]2 [B,,B,]2 [B,,B,]4 | %12
w: ~ ~ ~ ~ ~ ~|~ ~ ~|
 [G,=B,]3 [G,B,] [G,B,][G,B,][F,B,][F,B,] | [E,C]3 [D,=B,] !fermata![C,C]4 | %14
w: ~ ~ ~ ~ ~ ~|~ ~ ~|
 !>![F,B,]4 !>![F,A,]4 | !>!B,2 G,_G, F,2 z2 |] %16
w: ~ ~|~ Saved to serve|
V:4
 x8 | x8 | x8 | G,2 G,2 G,4 | x8 | x8 | x8 | x8 || x8 | x8 | x8 | x8 | x8 | x8 | x8 | B,,6 x2 |] %16

